flaticon/constructions/ladder-4.svg

<svg xmlns="http://www.w3.org/2000/svg" width="32" height="32" viewBox="0 0 24 24">
    <path d="M 17.199219 21.601562 L 16.398438 21.601562 L 16.398438 0.398438 C 16.398438 0.160156 16.238281 0 16 0 L 14.398438 0 C 14.160156 0 14 0.160156 14 0.398438 L 14 2.398438 L 10 2.398438 L 10 0.398438 C 10 0.160156 9.839844 0 9.601562 0 L 8 0 C 7.761719 0 7.601562 0.160156 7.601562 0.398438 L 7.601562 21.601562 L 6.800781 21.601562 C 6.558594 21.601562 6.398438 21.761719 6.398438 22 L 6.398438 23.601562 C 6.398438 23.839844 6.558594 24 6.800781 24 L 17.199219 24 C 17.441406 24 17.601562 23.839844 17.601562 23.601562 L 17.601562 22 C 17.601562 21.761719 17.441406 21.601562 17.199219 21.601562 Z M 14.800781 0.800781 L 15.601562 0.800781 L 15.601562 21.601562 L 14.800781 21.601562 Z M 10 21.601562 L 10 19.199219 L 14 19.199219 L 14 21.601562 Z M 10 12.800781 L 14 12.800781 L 14 13.601562 L 10 13.601562 Z M 14 12 L 10 12 L 10 9.601562 L 14 9.601562 Z M 14 8.800781 L 10 8.800781 L 10 8 L 14 8 Z M 10 14.398438 L 14 14.398438 L 14 16.800781 L 10 16.800781 Z M 10 17.601562 L 14 17.601562 L 14 18.398438 L 10 18.398438 Z M 14 7.199219 L 10 7.199219 L 10 4.800781 L 14 4.800781 Z M 14 3.199219 L 14 4 L 10 4 L 10 3.199219 Z M 8.398438 0.800781 L 9.199219 0.800781 L 9.199219 21.601562 L 8.398438 21.601562 Z M 16.800781 23.199219 L 7.199219 23.199219 L 7.199219 22.398438 L 16.800781 22.398438 Z M 16.800781 23.199219"/>
</svg>

<svg xmlns="http://www.w3.org/2000/svg" width="32" height="32" viewBox="0 0 24 24">
    <path d="M17.2 21.602h-.802V.398C16.398.16 16.238 0 16 0h-1.602C14.16 0 14 .16 14 .398v2h-4v-2C10 .16 9.84 0 9.602 0H8c-.238 0-.398.16-.398.398v21.204H6.8c-.242 0-.403.16-.403.398v1.602c0 .238.16.398.403.398h10.398c.242 0 .403-.16.403-.398V22c0-.238-.16-.398-.403-.398zM14.8.8h.802v20.8H14.8zM10 21.6V19.2h4v2.403zm0-8.8h4v.8h-4zM14 12h-4V9.602h4zm0-3.2h-4V8h4zm-4 5.598h4v2.403h-4zm0 3.204h4v.796h-4zm4-10.403h-4V4.801h4zm0-4V4h-4v-.8zM8.398.801H9.2v20.8h-.8zm8.403 22.398H7.199v-.8h9.602zm0 0"/>
</svg>
